app/component-library/components/Icons/Icon/assets/export.svg

<svg width="24" height="24" viewBox="0 0 24 24" fill="none" xmlns="http://www.w3.org/2000/svg">
<path d="M13.2808 10.9998L21.4808 2.7998M22.281 6.8V2H17.481M11.2808 2H9.28076C4.28076 2 2.28076 4 2.28076 9V15C2.28076 20 4.28076 22 9.28076 22H15.2808C20.2808 22 22.2808 20 22.2808 15V13" stroke="currentColor" stroke-width="1.5" stroke-linecap="round" stroke-linejoin="round"/>
</svg>

<svg xmlns="http://www.w3.org/2000/svg" width="24" height="24" viewBox="0 0 24 24" fill="none"><path d="m13.28 11 8.2-8.2m.801 4V2h-4.8m-6.2 0h-2c-5 0-7 2-7 7v6c0 5 2 7 7 7h6c5 0 7-2 7-7v-2" stroke="currentColor" stroke-width="1.5" stroke-linecap="round" stroke-linejoin="round"/></svg>
